X: 14107
T: Friendly Visit, The
R: hornpipe
M: 4/4
K: Amajor
(Ac)EG (Ac)ec|(df)Bc (de)fg|agag fedc|BAGF EdcB|
(Ac)EG (Ac)ec|(df)Bc (de)fg|agae (fd)BG|A2c2 A2:|
a2(ec) Acea|gbge Bega|gbge (f/g/a) f^d|(e^d)ef e=dcB|
(Ac)EG (Ac)ec|(df)Bc (de)fg|agae (fd)BG|A2c2 A2:|

